X:67
T:Ingonish
Z: id:dc-jig-175
M:6/8
L:1/8
K:E Dorian
A|Bee efg|faf dBA|Bee efg|fdc d2A|!
Bee efg|faf dBA|B3 Bcd|AGF E2:|!
A|BEE BEE|F3 DFA|BEE BEE|FED E2A|!
BEE BEE|F3 DFA|B3 Bcd|AGF E2:|!

